src/icons/txt.svg

<?xml version="1.0" encoding="UTF-8"?>
<svg xmlns="http://www.w3.org/2000/svg" xmlns:xlink="http://www.w3.org/1999/xlink" width="23.04" height="32" viewBox="0 0 23.04 32" version="1.1">
<defs>
<linearGradient id="linear0" gradientUnits="userSpaceOnUse" x1="36" y1="2.953" x2="36" y2="100.949997" gradientTransform="matrix(1,0,0,-1,0,102)">
<stop offset="0" style="stop-color:rgb(78.431374%,83.137256%,85.882354%);stop-opacity:1;"/>
<stop offset="0.139" style="stop-color:rgb(84.705883%,88.235295%,90.196079%);stop-opacity:1;"/>
<stop offset="0.359" style="stop-color:rgb(92.156863%,94.117647%,95.294118%);stop-opacity:1;"/>
<stop offset="0.617" style="stop-color:rgb(97.647059%,98.039216%,98.431373%);stop-opacity:1;"/>
<stop offset="1" style="stop-color:rgb(100%,100%,100%);stop-opacity:1;"/>
</linearGradient>
<linearGradient id="linear1" gradientUnits="userSpaceOnUse" x1="11.84" y1="66.245003" x2="60.452" y2="66.245003" gradientTransform="matrix(0.32,0,0,-0.32,0,32.64)">
<stop offset="0" style="stop-color:rgb(44.705883%,56.862748%,63.137257%);stop-opacity:1;"/>
<stop offset="1" style="stop-color:rgb(79.215688%,83.529413%,85.882354%);stop-opacity:1;"/>
</linearGradient>
<linearGradient id="linear2" gradientUnits="userSpaceOnUse" x1="11.84" y1="42.191002" x2="60.452" y2="42.191002" gradientTransform="matrix(0.32,0,0,-0.32,0,32.64)">
<stop offset="0" style="stop-color:rgb(44.705883%,56.862748%,63.137257%);stop-opacity:1;"/>
<stop offset="1" style="stop-color:rgb(79.215688%,83.529413%,85.882354%);stop-opacity:1;"/>
</linearGradient>
<linearGradient id="linear3" gradientUnits="userSpaceOnUse" x1="11.84" y1="53.931" x2="60.452" y2="53.931" gradientTransform="matrix(0.32,0,0,-0.32,0,32.64)">
<stop offset="0" style="stop-color:rgb(44.705883%,56.862748%,63.137257%);stop-opacity:1;"/>
<stop offset="1" style="stop-color:rgb(79.215688%,83.529413%,85.882354%);stop-opacity:1;"/>
</linearGradient>
<linearGradient id="linear4" gradientUnits="userSpaceOnUse" x1="11.84" y1="78.419998" x2="60.452" y2="78.419998" gradientTransform="matrix(0.32,0,0,-0.32,0,32.64)">
<stop offset="0" style="stop-color:rgb(44.705883%,56.862748%,63.137257%);stop-opacity:1;"/>
<stop offset="1" style="stop-color:rgb(79.215688%,83.529413%,85.882354%);stop-opacity:1;"/>
</linearGradient>
<linearGradient id="linear5" gradientUnits="userSpaceOnUse" x1="45.068001" y1="74.154999" x2="58.568001" y2="87.654999" gradientTransform="matrix(1,0,0,-1,0,102)">
<stop offset="0" style="stop-color:rgb(100%,100%,100%);stop-opacity:1;"/>
<stop offset="0.35" style="stop-color:rgb(98.039216%,98.431373%,98.431373%);stop-opacity:1;"/>
<stop offset="0.532" style="stop-color:rgb(92.941177%,94.509804%,95.686275%);stop-opacity:1;"/>
<stop offset="0.675" style="stop-color:rgb(86.666667%,89.803922%,91.37255%);stop-opacity:1;"/>
<stop offset="0.799" style="stop-color:rgb(78.039217%,82.745099%,85.490197%);stop-opacity:1;"/>
<stop offset="0.908" style="stop-color:rgb(67.843139%,74.117649%,78.039217%);stop-opacity:1;"/>
<stop offset="1" style="stop-color:rgb(57.254905%,64.705884%,69.01961%);stop-opacity:1;"/>
</linearGradient>
</defs>
<g id="surface1">
<path style="fill-rule:nonzero;fill:url(#linear0);stroke-width:2;stroke-linecap:butt;stroke-linejoin:miter;stroke:rgb(44.313726%,56.862748%,63.137257%);stroke-opacity:1;stroke-miterlimit:4;" d="M 44.995117 1.000977 L 71.99707 27.697754 L 71.99707 98.999023 L 0 98.999023 L 0 1.000977 Z M 44.995117 1.000977 " transform="matrix(0.32,0,0,0.32,0,0)"/>
<path style=" stroke:none;fill-rule:nonzero;fill:rgb(29.803923%,42.352942%,48.235294%);fill-opacity:1;" d="M 5.152344 29.152344 L 5.152344 23.871094 L 3.265625 23.871094 L 3.265625 22.785156 L 8.351562 22.785156 L 8.351562 23.871094 L 6.464844 23.871094 L 6.464844 29.152344 Z M 8.511719 29.152344 L 10.6875 25.824219 L 8.703125 22.785156 L 10.238281 22.785156 L 11.519531 24.832031 L 12.769531 22.785156 L 14.273438 22.785156 L 12.289062 25.855469 L 14.464844 29.121094 L 12.894531 29.121094 L 11.488281 26.910156 L 10.046875 29.121094 L 8.511719 29.121094 Z M 16.609375 29.152344 L 16.609375 23.871094 L 14.71875 23.871094 L 14.71875 22.785156 L 19.808594 22.785156 L 19.808594 23.871094 L 17.921875 23.871094 L 17.921875 29.152344 Z M 16.609375 29.152344 "/>
<path style=" stroke:none;fill-rule:nonzero;fill:url(#linear1);" d="M 3.777344 10.785156 L 19.328125 10.785156 L 19.328125 12.097656 L 3.777344 12.097656 Z M 3.777344 10.785156 "/>
<path style=" stroke:none;fill-rule:nonzero;fill:url(#linear2);" d="M 3.777344 18.496094 L 19.328125 18.496094 L 19.328125 19.808594 L 3.777344 19.808594 Z M 3.777344 18.496094 "/>
<path style=" stroke:none;fill-rule:nonzero;fill:url(#linear3);" d="M 3.777344 14.71875 L 19.328125 14.71875 L 19.328125 16.03125 L 3.777344 16.03125 Z M 3.777344 14.71875 "/>
<path style=" stroke:none;fill-rule:nonzero;fill:url(#linear4);" d="M 3.777344 6.910156 L 19.328125 6.910156 L 19.328125 8.222656 L 3.777344 8.222656 Z M 3.777344 6.910156 "/>
<path style="fill-rule:nonzero;fill:url(#linear5);stroke-width:2;stroke-linecap:butt;stroke-linejoin:bevel;stroke:rgb(44.313726%,56.862748%,63.137257%);stroke-opacity:1;stroke-miterlimit:4;" d="M 44.995117 1.000977 L 71.99707 27.697754 L 44.995117 27.697754 Z M 44.995117 1.000977 " transform="matrix(0.32,0,0,0.32,0,0)"/>
</g>
</svg>

<svg role="img" viewBox="0 0 23.04 32" xmlns="http://www.w3.org/2000/svg" xmlns:xlink="http://www.w3.org/1999/xlink"><defs><linearGradient gradientTransform="matrix(1 0 0 -1 0 102)" gradientUnits="userSpaceOnUse" id="a" x1="36" x2="36" y1="2.953" y2="100.95"><stop offset="0" style="stop-color:rgb(78.431374%,83.137256%,85.882354%);stop-opacity:1"/><stop offset=".139" style="stop-color:rgb(84.705883%,88.235295%,90.196079%);stop-opacity:1"/><stop offset=".359" style="stop-color:rgb(92.156863%,94.117647%,95.294118%);stop-opacity:1"/><stop offset=".617" style="stop-color:rgb(97.647059%,98.039216%,98.431373%);stop-opacity:1"/><stop offset="1" style="stop-color:rgb(100%,100%,100%);stop-opacity:1"/></linearGradient><linearGradient gradientTransform="matrix(.32 0 0 -.32 0 32.64)" gradientUnits="userSpaceOnUse" id="b" x1="11.84" x2="60.452" y1="66.245" y2="66.245"><stop offset="0" style="stop-color:rgb(44.705883%,56.862748%,63.137257%);stop-opacity:1"/><stop offset="1" style="stop-color:rgb(79.215688%,83.529413%,85.882354%);stop-opacity:1"/></linearGradient><linearGradient gradientTransform="matrix(.32 0 0 -.32 0 32.64)" gradientUnits="userSpaceOnUse" id="c" x1="11.84" x2="60.452" y1="42.191" y2="42.191"><stop offset="0" style="stop-color:rgb(44.705883%,56.862748%,63.137257%);stop-opacity:1"/><stop offset="1" style="stop-color:rgb(79.215688%,83.529413%,85.882354%);stop-opacity:1"/></linearGradient><linearGradient gradientTransform="matrix(.32 0 0 -.32 0 32.64)" gradientUnits="userSpaceOnUse" id="d" x1="11.84" x2="60.452" y1="53.931" y2="53.931"><stop offset="0" style="stop-color:rgb(44.705883%,56.862748%,63.137257%);stop-opacity:1"/><stop offset="1" style="stop-color:rgb(79.215688%,83.529413%,85.882354%);stop-opacity:1"/></linearGradient><linearGradient gradientTransform="matrix(.32 0 0 -.32 0 32.64)" gradientUnits="userSpaceOnUse" id="e" x1="11.84" x2="60.452" y1="78.42" y2="78.42"><stop offset="0" style="stop-color:rgb(44.705883%,56.862748%,63.137257%);stop-opacity:1"/><stop offset="1" style="stop-color:rgb(79.215688%,83.529413%,85.882354%);stop-opacity:1"/></linearGradient><linearGradient gradientTransform="matrix(1 0 0 -1 0 102)" gradientUnits="userSpaceOnUse" id="f" x1="45.068" x2="58.568" y1="74.155" y2="87.655"><stop offset="0" style="stop-color:rgb(100%,100%,100%);stop-opacity:1"/><stop offset=".35" style="stop-color:rgb(98.039216%,98.431373%,98.431373%);stop-opacity:1"/><stop offset=".532" style="stop-color:rgb(92.941177%,94.509804%,95.686275%);stop-opacity:1"/><stop offset=".675" style="stop-color:rgb(86.666667%,89.803922%,91.37255%);stop-opacity:1"/><stop offset=".799" style="stop-color:rgb(78.039217%,82.745099%,85.490197%);stop-opacity:1"/><stop offset=".908" style="stop-color:rgb(67.843139%,74.117649%,78.039217%);stop-opacity:1"/><stop offset="1" style="stop-color:rgb(57.254905%,64.705884%,69.01961%);stop-opacity:1"/></linearGradient></defs><path d="m44.995 1.001 27.002 26.697v71.301H0V1.001Zm0 0" style="fill-rule:nonzero;fill:url(#a);stroke-width:2;stroke-linecap:butt;stroke-linejoin:miter;stroke:rgb(44.313726%,56.862748%,63.137257%);stroke-opacity:1;stroke-miterlimit:4" transform="scale(.32)"/><path d="M5.152 29.152v-5.28H3.266v-1.087h5.086v1.086H6.465v5.281Zm3.36 0 2.175-3.328-1.984-3.039h1.535l1.282 2.047 1.25-2.047h1.503l-1.984 3.07 2.176 3.266h-1.57l-1.407-2.21-1.441 2.21H8.512Zm8.097 0v-5.28h-1.89v-1.087h5.09v1.086h-1.887v5.281Zm0 0" style="stroke:none;fill-rule:nonzero;fill:rgb(29.803923%,42.352942%,48.235294%);fill-opacity:1"/><path d="M3.777 10.785h15.551v1.313H3.778Zm0 0" style="stroke:none;fill-rule:nonzero;fill:url(#b)"/><path d="M3.777 18.496h15.551v1.313H3.778Zm0 0" style="stroke:none;fill-rule:nonzero;fill:url(#c)"/><path d="M3.777 14.719h15.551v1.312H3.778Zm0 0" style="stroke:none;fill-rule:nonzero;fill:url(#d)"/><path d="M3.777 6.91h15.551v1.313H3.778Zm0 0" style="stroke:none;fill-rule:nonzero;fill:url(#e)"/><path d="m44.995 1.001 27.002 26.697H44.995Zm0 0" style="fill-rule:nonzero;fill:url(#f);stroke-width:2;stroke-linecap:butt;stroke-linejoin:bevel;stroke:rgb(44.313726%,56.862748%,63.137257%);stroke-opacity:1;stroke-miterlimit:4" transform="scale(.32)"/></svg>
